X:1
T:Holly Springs, 87.87.77
T:Holly Springs, 87.87.77
T:Joseph Maclean, 1899
T:Public Domain Courtesy of the Cyber Hymnal™
C:Joseph Maclean, 1899
Z:Public Domain
Z:Courtesy of the Cyber Hymnal™
%%score ( 1 2 ) 3
L:1/8
Q:1/4=100
M:3/4
K:Eb
V:1 treble 
V:2 treble 
V:3 bass 
V:1
 [EG][EG] | [EA]3 [Fc] [FB][DA] | [FA]2 [EG]2 [EG][FB] | [Ge][Gc] [FB]2 [E=A]2 | [DB]4 [FG][FG] | %5
 [=Ec]3 [EA] [EG][EA] | [=EG]2 F2 [FA][FG] | [EG][Gc] [GB]2 [^F=A]2 | [DG]4 F[=EG] | %9
 [FA]3 [Fc] [Fc][FB] | [EB]4 E[B,E] | [CE][CA] [DG]2 [DF]2 | E4 |] %13
V:2
 x2 | x6 | x6 | x6 | x6 | x6 | x2 F2 x2 | x6 | x4 F x | x6 | x4 E x | x6 | E4 |] %13
V:3
 [E,B,][E,B,] | [E,C]3 [E,A,] [D,A,][B,,B,] | [E,B,]2 [E,B,]2 [E,B,][E,B,] | %3
 [C,C][E,C] [F,D]2 [F,C]2 | [B,,B,]4 [B,_D][B,D] | [B,C]3 [C,C] [C,B,][C,C] | %6
 [F,B,]2 [F,A,]2 [E,C][D,=B,] | [C,C][C,E] [D,D]2 [D,C]2 | [G,B,]4 [A,C][G,B,] | %9
 [F,A,]3 [E,A,] [D,A,][D,A,] | [_D,G,]4 [D,G,][D,G,] | [C,A,][A,,F,] [B,,B,]2 [B,,A,]2 | [E,G,]4 |] %13

